X: 19280
T: Ivy Leaf, The
R: reel
M: 4/4
K: Amixolydian
AAAe cAec|Aeee dBGB|A2 ed (3Bcd ed|BGEF GABG|
Aeee ceee|aeee dBGB|A2 ed (3Bcd ed|BGEF GABG|
eaag ed (3Bcd|gggd BGBd|eaag eeed|BGEF GABG|
eaag ed (3Bcd|gggd BGBd|A^GAB =cBcd|eeef gedB||

